!!!OTL: Tip-Toe thru' the Tulips with Me
!!!COM: Burke, Joe
!!!LAR: Thorne, Frank
!! "Tip-Toe Thru' the Tulips with Me," music by Joe Burke, arranged by
!! Frank Thorne,
!! from "Close Harmony Classics for Barbershop Quartets" B. Feldman & Co.;
!! copyright 1929 by M Witmark & Sons; pp. 4-5; alla breve; in E- major
**kern	**kern	**kern	**kern
*Ivox	*Ivox	*Ivox	*Ivox
*M2/2	*M2/2	*M2/2	*M2/2
*E-:	*E-:	*E-:	*E-:
=1	=1	=1	=1
4E-	4e-	4B-	4g
4E-	4B-	4e-	4g
4E-	4e-	4c	4g
4F	4c	4A-	4e-
=2	=2	=2	=2
4BB-	4A-	4F	4d
2.BB-	2.A-	2.d	2.f
=3	=3	=3	=3
4BB-	4A-	4F	4d
4BB-	4A-	4d	4f
4F	4A-	4B-	4d
4D	4Bn	4G	4f
=4	=4	=4	=4
4C	4G	4E-	4c
2.C	2.G	2.c	2.e-
=5	=5	=5	=5
4F	4A-	4B-	4d
2BB-	2A-	2F	2d
4F	4A-	4B-	4d
=6	=6	=6	=6
4En	4G-	4B-	4d-
2E-	2B-	2G-	2d-
4E-	4G-	4B-	4d-
=7	=7	=7	=7
2F	2A-	2B-	2dn
4E-	4B-	4Gn	2e-
4AA-	4G-	4c	.
=8	=8	=8	=8
2.E-	2.Gn	2.B-	2.e-
4r;	4r;	4r;	4r;
=9	=9	=9	=9
4E-	4e-	4B-	4g
4E-	4B-	4e-	4g
4E-	4e-	4c	4g
4F	4c	4A-	4e-
=10	=10	=10	=10
4BB-	4A-	4F	4d
2.BB-	2.A-	2.d	2.f
=11	=11	=11	=11
4BB-	4A-	4F	4d
4BB-	4A-	4d	4f
4F	4A-	4B-	4d
4D	4Bn	4G	4f
=12	=12	=12	=12
4G	4c	4E-	4e-
2.G	2.B-	2.c	2.en
=13	=13	=13	=13
4F	4B-	4d	4f
2F	2d	2B-	2f
4F	4B-	4d	4a-
=14	=14	=14	=14
4En	4B-	4d-	4g
2E	2d-	2B-	2g
4E	4B-	4d-	4g
=15	=15	=15	=15
2F	2dn	2B-	2a-
2En	2B-	2c	2g
=16	=16	=16	=16
2C	2An	2G	2e-
2BB-;	2A-;	2F;	4c
.	.	.	4d;
=17	=17	=17	=17
4E-	4B-	4G	4e-
4BB-	2B-	2G	2e-
4E-	.	.	.
4C	8.B-	8.c	8.en
.	16G	16B-	16e
=18	=18	=18	=18
4F	4c	4A-	4f
4C	2c	2A-	2f
4FF	.	.	.
4BB-	8.A-	8.d	8.f
.	16A-	16c	16f
=19	=19	=19	=19
4E-	4e-	4B-	4g
4E-	2d-	2B-	2g
4E-	.	.	.
4GG	8.Bn	8.e-	8.f
.	16B	16d	16f
=20	=20	=20	=20
4AA-	4e-	4c	4a-
4AA-	4c	4e-	4g-
4AA-	4c	4E-	4g-
4E-	4c	4A-	4g-
=21	=21	=21	=21
4E-	4B-	4G	4e-
4D	4Bn	2G	4f
4C	4B-	.	4en
4G	8.B-	8.c	8.e
.	16c	16B-	16e
=22	=22	=22	=22
4F	4c	4A-	4e-
4BB-	2A-	2F	2d
4FF	.	.	.
4BB-	4B-	4G	4d
=23	=23	=23	=23
4E-	4B-	4e-	4g
4E-	4d-	4B-	4g
4E-	4c	4An	4g-
4E-	4Bn	4A-	4f
=24	=24	=24	=24
2E-	2B-	2G	2e-
4BB-;	4A-;	4F;	4d;
4BB-;	4A-;	4F#;	4d;
=25	=25	=25	=25
4E-	4B-	4G	4e-
4BB-	2B-	2G	2e-
4E-	.	.	.
4C	8.B-	8.c	8.en
.	16G	16B-	16e
=26	=26	=26	=26
4F	4c	4A-	4f
4C	2c	2A-	2f
4FF	.	.	.
4BB-	8.A-	8.d	8.f
.	16A-	16c	16f
=27	=27	=27	=27
4E-	4e-	4B-	4g
4E-	2d-	2B-	2g
4E-	.	.	.
4GG	8.Bn	8.e-	8.f
.	16B	16d	16f
=28	=28	=28	=28
4AA-	4e-	4c	4a-
4AA-	4c	4e-	4g-
4AA-	4c	4E-	4g-
4E-	4c	4A-	4g-
=29	=29	=29	=29
4E-	4B-	4G	4e-
4D	4Bn	2G	4f
4C	4B-	.	4en
4G	8.B-	8.c	8.e
.	16c	16B-	16e
=30	=30	=30	=30
4F	4c	4A-	4e-
4BB-	2A-	2F	2d
4FF	.	.	.
4BB-	4B-	4G	4d
=31	=31	=31	=31
4BB-	2G	[1E-	2e-
4BB-	.	.	.
4AA-	2F#	.	2c
4AA-	.	.	.
=32	=32	=32	=32
4BB-	4G	2E-]	4e-
4r	4r	.	4r
2C;	2An;	2e-;	2f;
=33	=33	=33	=33
2C	2An	[1F	2e-
2BBn	2A-	.	2d
=34	=34	=34	=34
2C	2An	2F]	2e-
2F	2A	2e-	2g
=35	=35	=35	=35
4F	4An	4d	4f
4F	4A	4c	4e-
4F	4A	4d	4f
[4F	[4A	[4c	[4e-
=36	=36	=36	=36
2F]	2A]	2c]	2e-]
2G	2B-	2d	2en
=37	=37	=37	=37
2An	2An	[1D	2f#
2G#	2G#	.	2fn
=38	=38	=38	=38
2An	2An	2D]	2f#
2A	2A	2d	2f#
=39	=39	=39	=39
4An	4d	4c	4f#
4G	4d	4B-	4g
4G	4B-	4c	4en
[4G	[4c	[4B-	[4e
=40	=40	=40	=40
4G]	4c]	4B-]	4e]
4G	4B-	4c	4en
4C	4An	4G	4e-
4BB-	4A-	8f	4d
.	.	8f#	.
=41	=41	=41	=41
4E-	4B-	4G	4e-
4BB-	2B-	2G	2e-
4E-	.	.	.
4C	8.B-	8.c	8.en
.	16G	16B-	16e
=42	=42	=42	=42
4F	4c	4A-	4f
4C	2c	2A-	2f
4FF	.	.	.
4BB-	8.A-	8.d	8.f
.	16A-	16c	16f
=43	=43	=43	=43
4E-	4e-	4B-	4g
4E-	2d-	2B-	2g
4E-	.	.	.
4G	8.Bn	8.e-	8.f
.	16B	16d	16f
=44	=44	=44	=44
4AA-	4e-	4c	4a-
4AA-	4c	4e-	4g-
4AA-	4c	4E-	4g-
4E-	4c	4A-	4g-
=45	=45	=45	=45
4E-	4B-	4G	4e-
4D	4Bn	2G	4f
4C	4B-	.	4en
4G	8.B-	8.c	8.e
.	16c	16B-	16e
=46	=46	=46	=46
4F	4c	4A-	4e-
4BB-	2A-	2F	2d
4FF	.	.	.
4BB-	4B-	4G	4d
=47	=47	=47	=47
4EE-	4G	4E-	4B-
4E-	4B-	4e-	4g
4An	4c	4e-	4g-
4A-	4c	4e-	4f
=48	=48	=48	=48
4F;	4Bn;	4e-;	4a-;
4F;	4B-;	4d;	4a-;
4E-	2B-;	2e;	2g;
4EE-;	.	.	.
==	==	==	==
*-	*-	*-	*-
